X: 30
T:Mussels in the Corner
R:polka
Z:added by Alf 
M:2/4
L:1/16
K:A
|A2E2 A2B2|c2e2 f4|e2c2 B2AB|c2B2 B4|
A2E2 A2B2|c2e2 f4|e2c2 B2cB|A4 A4:|
a2g2 f2e2|c2e2 f4|e2c2 B2AB|c2B2 B4|
|[1a2g2 f2e2|c2e2 f4|
e2c2 B2cB|A4 A4:|
|[2A2E2 A2B2|c2e2 f4|e2c2 B2cB|A4 A4|]
